X: 1
T: Martin's Tin Whistle
C: Martin Hayes
R: jig
Z: 2011 John Chambers <jc:trillian.mit.edu>
S: handwritten MS of unknown origin, from Steve Wyrick 2011-7-28
M: 6/8
L: 1/8
K: G
D |\
"G"GAB dBG | "Am"gec "D7"A2D | "G"GAB "Em"dBG | "Am"EAG "D7"FED |\
"G"GAB dBG | "Am"gec "D7"ABc | "G"ded "Em"BGE | "D7"cAF  "G"G2 :|
|: d |\
"G"dBG g2e |  "C"ecA "D7"g2e | "G"dBG  "C"geg |  "G"dBG "D7"A2d |\
"G"dBG g2e | "Am"ecA "D7"g2e | "G"dge     dBG | "D7"cAF  "G"G2 :|
